assets/features/channel/east-asia/youli.svg

<svg width="80" height="80" viewBox="0 0 80 80" fill="none" xmlns="http://www.w3.org/2000/svg">
<rect x="0.5" y="0.5" width="79" height="79" rx="7.5" fill="white"/>
<rect x="0.5" y="0.5" width="79" height="79" rx="7.5" stroke="#EEEEEE"/>
<path d="M58.04 48.644C53.2384 47.3502 46.8873 46.5625 39.9217 46.5625C33.0229 46.5625 26.7274 47.3352 21.9424 48.6072C25.1596 55.3445 32.0357 59.9999 39.9998 59.9999C47.9493 59.9999 54.8153 55.3616 58.04 48.644Z" fill="#1273B8"/>
<path d="M39.9218 46.5624C46.8874 46.5624 53.2385 47.3501 58.0402 48.6441C59.2959 46.0278 60 43.096 60 39.9999C60 28.9543 51.0455 20 39.9999 20C28.9543 20 20 28.9543 20 39.9999C20 43.0817 20.6977 46.0001 21.9425 48.607C26.7275 47.3353 33.023 46.5624 39.9218 46.5624Z" fill="#009CDB"/>
<path d="M39.9936 46.7188C46.9592 46.7188 53.3102 47.5063 58.1119 48.8003C58.3164 48.373 58.5056 47.9385 58.6791 47.4976C55.4337 42.52 48.2881 39.0625 39.9936 39.0625C31.7813 39.0625 24.6959 42.4518 21.4062 47.35C21.5906 47.8288 21.7934 48.3003 22.0142 48.7635C26.7992 47.4915 33.0945 46.7188 39.9936 46.7188Z" fill="#F9FDFE"/>
</svg>

<svg xmlns="http://www.w3.org/2000/svg" width="80" height="80" fill="none" viewBox="0 0 80 80"><rect width="79" height="79" x=".5" y=".5" fill="#fff" rx="7.5"/><rect width="79" height="79" x=".5" y=".5" stroke="#eee" rx="7.5"/><path fill="#1273b8" d="M58.04 48.644c-4.802-1.294-11.153-2.081-18.118-2.081-6.9 0-13.195.772-17.98 2.044C25.16 55.344 32.036 60 40 60c7.95 0 14.815-4.638 18.04-11.356"/><path fill="#009cdb" d="M39.922 46.562c6.965 0 13.317.788 18.118 2.082A19.9 19.9 0 0 0 60 40c0-11.046-8.955-20-20-20s-20 8.954-20 20c0 3.082.698 6 1.942 8.607 4.785-1.272 11.081-2.045 17.98-2.045"/><path fill="#f9fdfe" d="M39.994 46.719c6.965 0 13.316.787 18.118 2.081q.307-.64.567-1.302c-3.245-4.978-10.39-8.435-18.685-8.435-8.213 0-15.298 3.389-18.588 8.287q.277.718.608 1.413c4.785-1.271 11.08-2.044 17.98-2.044"/></svg>
